fs/quiz_new_28_regular.svg

<svg viewBox="0 0 28 28" fill="none" xmlns="http://www.w3.org/2000/svg" height="1em" width="1em">
  <path d="M3 5.75C3 4.23122 4.23122 3 5.75 3H22.25C23.7688 3 25 4.23122 25 5.75V14.4995C24.5384 14.1527 24.0355 13.858 23.5 13.6241V5.75C23.5 5.05964 22.9404 4.5 22.25 4.5H5.75C5.05964 4.5 4.5 5.05964 4.5 5.75V22.25C4.5 22.9404 5.05964 23.5 5.75 23.5H13.6241C13.858 24.0355 14.1527 24.5384 14.4995 25H5.75C4.23122 25 3 23.7688 3 22.25V5.75ZM6.75 15.9981L14.5009 15.9981C14.154 16.4596 13.8591 16.9625 13.6249 17.4981L6.75 17.4981C6.33579 17.4981 6 17.1623 6 16.7481C6 16.3339 6.33579 15.9981 6.75 15.9981ZM6 20.7511C6 20.3369 6.33579 20.0011 6.75 20.0011L12.2523 20.0011C12.6665 20.0011 13.0023 20.3369 13.0023 20.7511C13.0023 21.1653 12.6665 21.5011 12.2523 21.5011L6.75 21.5011C6.33578 21.5011 6 21.1653 6 20.7511ZM11.5017 5.99966C11.803 5.99972 12.075 6.18012 12.1924 6.45768L14.9408 12.9606C15.1021 13.3421 14.9235 13.7821 14.542 13.9434C14.1605 14.1046 13.7204 13.9261 13.5592 13.5445L13.1184 12.5017H9.88208L9.44073 13.5448C9.27932 13.9263 8.83923 14.1047 8.45775 13.9433C8.07628 13.7819 7.89789 13.3418 8.0593 12.9603L10.8108 6.45741C10.9282 6.1799 11.2003 5.9996 11.5017 5.99966ZM10.5168 11.0017H12.4844L11.5011 8.67524L10.5168 11.0017ZM17.75 5.99991C18.1642 5.99991 18.5 6.33569 18.5 6.74991V8H19.7501C20.1643 8 20.5001 8.33579 20.5001 8.75C20.5001 9.16421 20.1643 9.5 19.7501 9.5H18.5V10.7476C18.5 11.1618 18.1642 11.4976 17.75 11.4976C17.3358 11.4976 17 11.1618 17 10.7476V9.5H15.7524C15.3382 9.5 15.0024 9.16421 15.0024 8.75C15.0024 8.33579 15.3382 8 15.7524 8H17V6.74991C17 6.33569 17.3358 5.99991 17.75 5.99991ZM27 20.5C27 24.0899 24.0899 27 20.5 27C16.9101 27 14 24.0899 14 20.5C14 16.9101 16.9101 14 20.5 14C24.0899 14 27 16.9101 27 20.5ZM21 16.5C21 16.2239 20.7761 16 20.5 16C20.2239 16 20 16.2239 20 16.5V20H16.5C16.2239 20 16 20.2239 16 20.5C16 20.7761 16.2239 21 16.5 21H20V24.5C20 24.7761 20.2239 25 20.5 25C20.7761 25 21 24.7761 21 24.5V21H24.5C24.7761 21 25 20.7761 25 20.5C25 20.2239 24.7761 20 24.5 20H21V16.5Z" fill="#212121"/>
</svg>

<svg viewBox="0 0 28 28" fill="none" xmlns="http://www.w3.org/2000/svg" height="1em" width="1em">
  <path d="M3 5.75A2.75 2.75 0 0 1 5.75 3h16.5A2.75 2.75 0 0 1 25 5.75v8.75a7.486 7.486 0 0 0-1.5-.876V5.75c0-.69-.56-1.25-1.25-1.25H5.75c-.69 0-1.25.56-1.25 1.25v16.5c0 .69.56 1.25 1.25 1.25h7.874c.234.535.529 1.038.875 1.5H5.75A2.75 2.75 0 0 1 3 22.25V5.75Zm3.75 10.248h7.75a7.493 7.493 0 0 0-.875 1.5H6.75a.75.75 0 0 1 0-1.5ZM6 20.751a.75.75 0 0 1 .75-.75h5.502a.75.75 0 0 1 0 1.5H6.75a.75.75 0 0 1-.75-.75ZM11.502 6a.75.75 0 0 1 .69.458l2.749 6.503a.75.75 0 1 1-1.382.583l-.44-1.042H9.881l-.441 1.043a.75.75 0 1 1-1.382-.585l2.752-6.503A.75.75 0 0 1 11.5 6Zm-.985 5.002h1.967l-.983-2.327-.984 2.327ZM17.75 6a.75.75 0 0 1 .75.75V8h1.25a.75.75 0 0 1 0 1.5H18.5v1.248a.75.75 0 0 1-1.5 0V9.5h-1.248a.75.75 0 0 1 0-1.5H17V6.75a.75.75 0 0 1 .75-.75ZM27 20.5a6.5 6.5 0 1 1-13 0 6.5 6.5 0 0 1 13 0Zm-6-4a.5.5 0 0 0-1 0V20h-3.5a.5.5 0 0 0 0 1H20v3.5a.5.5 0 0 0 1 0V21h3.5a.5.5 0 0 0 0-1H21v-3.5Z" fill="#212121"/>
</svg>
